X: 287
T:Ut Phebi radiis / Ut re mi fa sol la
N: Derived from Jos2510-Ut_Phebi_radiis__Ut_re_mi_fa_sol_la.krn
C: Josquin des Prez
%%abc-version 2.0
%%abcx-abcm2ps-target-version 5.9.1 (29 Sep 2008)
%%abc-creator hum2abc beta
%%abcx-conversion-date 2019/02/12 16:15:53
%%abc-edited-by Jesse Rodin
%%abc-edited-by Will Watson 2011/12/04
%%abcx-initial-encoding-date 2011/12/04/
%%humdrum-veritas 2728257835
%%humdrum-veritas-data 300828765
%%linebreak <none>
%%barnumbers 0
L: 1/4
M: 2/1
Q: 1/2=120
%%staves [1 2 3 4]
V: 1 clef=treble
V: 2 clef=treble-8
V: 3 clef=treble-8
V: 4 clef=bass
K: C
[V:1] z8 | 
[V:2] z8 | 
[V:3] z8 | 
[V:4] C,8 | 
[V:1] C8 | 
[V:2] z8 | 
[V:3] F8 | 
[V:4] z8 | 
[V:1] F8 | 
[V:2] F8 | 
[V:3] z8 | 
[V:4] z8 | 
[V:1] D4G4- | 
[V:2] _B8 | 
[V:3] z8 | 
[V:4] z8 | 
[V:1] G2G2G4 | 
[V:2] G4c4- | 
[V:3] z8 | 
[V:4] z8 | 
[V:1] z4G4 | 
[V:2] c2c2c4 | 
[V:3] z8 | 
[V:4] z8 | 
[V:1] A4c4 | 
[V:2] z4c4 | 
[V:3] z8 | 
[V:4] z8 | 
[V:1] B2A4c2- | 
[V:2] d4f4 | 
[V:3] z8 | 
[V:4] z8 | 
[V:1] c2B2A2c2- | 
[V:2] e2d2f4 | 
[V:3] z8 | 
[V:4] z8 | 
[V:1] c2BAG4 | 
[V:2] e2d2e4 | 
[V:3] z8 | 
[V:4] C,8 | 
[V:1] F6ED | 
[V:2] d6cB | 
[V:3] F8 | 
[V:4] D,8 | 
[V:1] D4G4- | 
[V:2] B6AG | 
[V:3] G8 | 
[V:4] z8 | 
[V:1] G4A4 | 
[V:2] G4c4- | 
[V:3] z8 | 
[V:4] z8 | 
[V:1] G3AB4 | 
[V:2] c4d4 | 
[V:3] z8 | 
[V:4] z8 | 
[V:1] c2c2c4 | 
[V:2] c3de4 | 
[V:3] z8 | 
[V:4] z8 | 
[V:1] z2c2c2d2- | 
[V:2] f2f2f4 | 
[V:3] z8 | 
[V:4] z8 | 
[V:1] dcdcA4 | 
[V:2] z2f4d2 | 
[V:3] z8 | 
[V:4] z8 | 
[V:1] G2A2B2c2- | 
[V:2] e2c2d2e2 | 
[V:3] z8 | 
[V:4] z8 | 
[V:1] cBAGFEG2- | 
[V:2] f3edcB2 | 
[V:3] z8 | 
[V:4] z8 | 
[V:1] GFF4E2 | 
[V:2] c2A2G4 | 
[V:3] z8 | 
[V:4] C,8 | 
[V:1] F8 | 
[V:2] F2f3ed2- | 
[V:3] F8 | 
[V:4] D,8 | 
[V:1] z8 | 
[V:2] dc_BA_B2AG | 
[V:3] G8 | 
[V:4] E,8 | 
[V:1] z4C4 | 
[V:2] F2c4F2- | 
[V:3] A8 | 
[V:4] z8 | 
[V:1] D4E3C | 
[V:2] F2G4A2 | 
[V:3] z8 | 
[V:4] z8 | 
[V:1] DEF4E2 | 
[V:2] F3AG4 | 
[V:3] z8 | 
[V:4] z8 | 
[V:1] F2A2G2A2- | 
[V:2] F4c4 | 
[V:3] z8 | 
[V:4] z8 | 
[V:1] A2GFG2E2 | 
[V:2] d4e3c | 
[V:3] z8 | 
[V:4] z8 | 
[V:1] F4G4 | 
[V:2] def4e2 | 
[V:3] z8 | 
[V:4] z8 | 
[V:1] A2F2G2A2 | 
[V:2] f2d2e2f2 | 
[V:3] z8 | 
[V:4] z8 | 
[V:1] F2G2A4 | 
[V:2] d2e2f3d | 
[V:3] z8 | 
[V:4] z8 | 
[V:1] G2F2G4 | 
[V:2] e2f4e2 | 
[V:3] z8 | 
[V:4] C,8 | 
[V:1] F3GA_BA2 | 
[V:2] f8 | 
[V:3] F8 | 
[V:4] D,8 | 
[V:1] GFG3FED | 
[V:2] z8 | 
[V:3] G8 | 
[V:4] E,8 | 
[V:1] C4F4- | 
[V:2] z4c4 | 
[V:3] A8 | 
[V:4] F,8 | 
[V:1] F4G4 | 
[V:2] d6e2 | 
[V:3] _B8 | 
[V:4] z8 | 
[V:1] A4_B4- | 
[V:2] f3edc_B2- | 
[V:3] z8 | 
[V:4] z8 | 
[V:1] B4A4 | 
[V:2] B2AGF4 | 
[V:3] z8 | 
[V:4] z8 | 
[V:1] z2A2G2A2- | 
[V:2] z2f2e2c2 | 
[V:3] z8 | 
[V:4] z8 | 
[V:1] A2GFA2G2 | 
[V:2] d4c4 | 
[V:3] z8 | 
[V:4] z8 | 
[V:1] z2A2G2A2- | 
[V:2] z2f2e2f2- | 
[V:3] z8 | 
[V:4] z8 | 
[V:1] A2GFA2G2 | 
[V:2] f2edf2e2 | 
[V:3] z8 | 
[V:4] z8 | 
[V:1] E2CDEFG2- | 
[V:2] cdefg2c2- | 
[V:3] z8 | 
[V:4] z8 | 
[V:1] GFF4E2 | 
[V:2] c2A2G4 | 
[V:3] z8 | 
[V:4] C,8 | 
[V:1] F8 | 
[V:2] F2fedcd2 | 
[V:3] F8 | 
[V:4] D,8 | 
[V:1] z8 | 
[V:2] B2gfede2 | 
[V:3] G8 | 
[V:4] E,8 | 
[V:1] z4A4 | 
[V:2] c2agfef2- | 
[V:3] A8 | 
[V:4] F,8 | 
[V:1] G2_B3AGF | 
[V:2] fedcd4 | 
[V:3] _B8 | 
[V:4] G,8 | 
[V:1] E4G4 | 
[V:2] c4z2c2- | 
[V:3] c8 | 
[V:4] z8 | 
[V:1] A4B4 | 
[V:2] c2d4e2- | 
[V:3] z8 | 
[V:4] z8 | 
[V:1] c4d4 | 
[V:2] e2f4g2- | 
[V:3] z8 | 
[V:4] z8 | 
[V:1] B3GG2c2- | 
[V:2] g2e3cc2 | 
[V:3] z8 | 
[V:4] z8 | 
[V:1] c2A2B2c2- | 
[V:2] f4d2e2 | 
[V:3] z8 | 
[V:4] z8 | 
[V:1] cBAGF2G2- | 
[V:2] f3edcBA | 
[V:3] z8 | 
[V:4] z8 | 
[V:1] GFA4GF | 
[V:2] G2c4B2 | 
[V:3] z8 | 
[V:4] z8 | 
[V:1] E8- | 
[V:2] c4G4- | 
[V:3] z8 | 
[V:4] z8 | 
[V:1] E8 | 
[V:2] G4A4- | 
[V:3] z8 | 
[V:4] C,8 | 
[V:1] z8 | 
[V:2] A4B4- | 
[V:3] F8 | 
[V:4] D,8 | 
[V:1] z8 | 
[V:2] B4c4- | 
[V:3] G8 | 
[V:4] E,8 | 
[V:1] z8 | 
[V:2] c4d4- | 
[V:3] A8 | 
[V:4] F,8 | 
[V:1] z8 | 
[V:2] d4e4- | 
[V:3] _B8 | 
[V:4] G,8 | 
[V:1] z8 | 
[V:2] e4z4 | 
[V:3] c8 | 
[V:4] A,8 | 
[V:1] A8 | 
[V:2] f8 | 
[V:3] d8- | 
[V:4] z4D,4 | 
[V:1] A4_B4 | 
[V:2] f4g4 | 
[V:3] d8 | 
[V:4] D,4G,4 | 
[V:1] _B2B2B4 | 
[V:2] g2g2g4 | 
[V:3] d8- | 
[V:4] G,2G,2G,4 | 
[V:1] A4z4 | 
[V:2] f4z4 | 
[V:3] d8- | 
[V:4] D,4z4 | 
[V:1] _B4B2A2- | 
[V:2] f4f2f2- | 
[V:3] d8- | 
[V:4] _B,4B,2F,2- | 
[V:1] A2A2G2G2- | 
[V:2] f2f2_B2_B2- | 
[V:3] d8 | 
[V:4] F,2F,2G,2G,2- | 
[V:1] G2F2G4 | 
[V:2] B2A2_B4 | 
[V:3] d8- | 
[V:4] G,2D,2G,4 | 
[V:1] A2_B4A2- | 
[V:2] A2G2_Bcde | 
[V:3] d8- | 
[V:4] F,2G,4D,2- | 
[V:1] A2G2A4 | 
[V:2] f2g2fedc | 
[V:3] d8- | 
[V:4] D,2E,2F,4 | 
[V:1] _B8 | 
[V:2] _B2G2g4 | 
[V:3] d8- | 
[V:4] G,8 | 
[V:1] A8 ||  
[V:2] f8 ||  
[V:3] d8 ||  
[V:4] D,8 ||  
[V:1]  [K:C] [K:clef=treble][M:2/1]z8 | 
[V:2]  [K:C] [K:clef=treble-8][M:2/1]z8 | 
[V:3]  [K:C] [K:clef=treble-8][M:2/1]d8 | 
[V:4]  [K:C] [K:clef=bass][M:2/1]z8 | 
[V:1] z4A4- | 
[V:2] z8 | 
[V:3] z8 | 
[V:4] A,8 | 
[V:1] A2A2A4 | 
[V:2] d6d2 | 
[V:3] z8 | 
[V:4] z8 | 
[V:1] B4c4- | 
[V:2] d4c4 | 
[V:3] z8 | 
[V:4] z8 | 
[V:1] c2c2c4 | 
[V:2] f6f2 | 
[V:3] z8 | 
[V:4] z8 | 
[V:1] A4F4 | 
[V:2] f4d4 | 
[V:3] z8 | 
[V:4] z8 | 
[V:1] G4F2G2- | 
[V:2] e2c2d2e2- | 
[V:3] z8 | 
[V:4] z8 | 
[V:1] G2A2G2A2- | 
[V:2] e2f2e2f2- | 
[V:3] z8 | 
[V:4] z8 | 
[V:1] A2GFE4 | 
[V:2] fed4^c2 | 
[V:3] z8 | 
[V:4] z8 | 
[V:1] D4A3B | 
[V:2] d3efgf2- | 
[V:3] d8 | 
[V:4] z8 | 
[V:1] cdc4BA | 
[V:2] f2ede2f2 | 
[V:3] c8 | 
[V:4] A,8 | 
[V:1] B2c2d4 | 
[V:2] g4z4 | 
[V:3] z8 | 
[V:4] G,8 | 
[V:1] z4A4- | 
[V:2] d8 | 
[V:3] z8 | 
[V:4] z8 | 
[V:1] A4G4 | 
[V:2] c4_e4 | 
[V:3] z8 | 
[V:4] z8 | 
[V:1] _B4A2c2- | 
[V:2] d2_B2d2c2 | 
[V:3] z8 | 
[V:4] z8 | 
[V:1] c_BAG/F/G4 | 
[V:2] d2f4e2 | 
[V:3] z8 | 
[V:4] z8 | 
[V:1] F4z2F2 | 
[V:2] f3dd4 | 
[V:3] z8 | 
[V:4] z8 | 
[V:1] G2A2_B4 | 
[V:2] z2c2d2e2 | 
[V:3] z8 | 
[V:4] z8 | 
[V:1] A2G2d3c | 
[V:2] f2g2G2d2- | 
[V:3] z8 | 
[V:4] z8 | 
[V:1] _BAA4G2 | 
[V:2] dc_BA_B4 | 
[V:3] d8 | 
[V:4] z8 | 
[V:1] A8 | 
[V:2] A4c4 | 
[V:3] c8 | 
[V:4] A,8 | 
[V:1] z8 | 
[V:2] d6e2 | 
[V:3] _B8 | 
[V:4] G,8 | 
[V:1] z4A4 | 
[V:2] f6ed | 
[V:3] z8 | 
[V:4] F,8 | 
[V:1] G4F2D2 | 
[V:2] e4a4 | 
[V:3] z8 | 
[V:4] z8 | 
[V:1] E4D4 | 
[V:2] g4f2d2 | 
[V:3] z8 | 
[V:4] z8 | 
[V:1] z4G4 | 
[V:2] e2c2B4 | 
[V:3] z8 | 
[V:4] z8 | 
[V:1] A4c4 | 
[V:2] A4a4 | 
[V:3] z8 | 
[V:4] z8 | 
[V:1] B4d4 | 
[V:2] g4f4 | 
[V:3] z8 | 
[V:4] z8 | 
[V:1] c4B2A2- | 
[V:2] e2a2g2f2- | 
[V:3] z8 | 
[V:4] z8 | 
[V:1] A2GFG2A2- | 
[V:2] f2ede2f2- | 
[V:3] z8 | 
[V:4] z8 | 
[V:1] AGFEF4 | 
[V:2] fedcd4 | 
[V:3] d8 | 
[V:4] z8 | 
[V:1] E8 | 
[V:2] e2c3def | 
[V:3] c8 | 
[V:4] A,8 | 
[V:1] z8 | 
[V:2] [M:3/1](3g4d4e4 | 
[V:3] _B8 | 
[V:4] G,8 | 
[V:1] z4A4- | 
[V:2] (3f4c4d4 | 
[V:3] A8 | 
[V:4] F,8 | 
[V:1] A4G4 | 
[V:2] [M:2/1]e8 | 
[V:3] z8 | 
[V:4] E,8 | 
[V:1] F2E2F4 | 
[V:2] z4d4 | 
[V:3] z8 | 
[V:4] z8 | 
[V:1] E4z2A2- | 
[V:2] c4_B2A2 | 
[V:3] z8 | 
[V:4] z8 | 
[V:1] A2G2A2c2 | 
[V:2] _B4A4 | 
[V:3] z8 | 
[V:4] z8 | 
[V:1] B4A4 | 
[V:2] z2d4c2 | 
[V:3] z8 | 
[V:4] z8 | 
[V:1] z2D4C2 | 
[V:2] d2f2e4 | 
[V:3] z8 | 
[V:4] z8 | 
[V:1] DEFGA2G2- | 
[V:2] d6B2 | 
[V:3] z8 | 
[V:4] z8 | 
[V:1] G2F2GABc | 
[V:2] c2d2GFGA | 
[V:3] z8 | 
[V:4] z8 | 
[V:1] d2c4B2 | 
[V:2] B2c2G4 | 
[V:3] d8 | 
[V:4] z8 | 
[V:1] c8 | 
[V:2] z2c3def | 
[V:3] c8 | 
[V:4] A,8 | 
[V:1] z8 | 
[V:2] g2f4e2 | 
[V:3] _B8 | 
[V:4] G,8 | 
[V:1] z8 | 
[V:2] f2FGABcd | 
[V:3] A8 | 
[V:4] F,8 | 
[V:1] z8 | 
[V:2] e2d4^c2 | 
[V:3] G8 | 
[V:4] E,8 | 
[V:1] z4d4- | 
[V:2] d4d2c2 | 
[V:3] z8 | 
[V:4] D,8 | 
[V:1] d4c4 | 
[V:2] _B4A4 | 
[V:3] z8 | 
[V:4] z8 | 
[V:1] _B4A2G2 | 
[V:2] G2d4_B2 | 
[V:3] z8 | 
[V:4] z8 | 
[V:1] A4F2G2 | 
[V:2] c2d4c_B | 
[V:3] z8 | 
[V:4] z8 | 
[V:1] A4F2G2 | 
[V:2] A2d4e2 | 
[V:3] z8 | 
[V:4] z8 | 
[V:1] A4_B4 | 
[V:2] f4g4 | 
[V:3] z8 | 
[V:4] z8 | 
[V:1] A4F4 | 
[V:2] f4a4- | 
[V:3] z8 | 
[V:4] z8 | 
[V:1] G4_B4 | 
[V:2] a4g4- | 
[V:3] z8 | 
[V:4] z8 | 
[V:1] A8 | 
[V:2] g4f4- | 
[V:3] d8 | 
[V:4] z8 | 
[V:1] z8 | 
[V:2] f4e4- | 
[V:3] c8 | 
[V:4] A,8 | 
[V:1] z8 | 
[V:2] e4d4- | 
[V:3] _B8 | 
[V:4] G,8 | 
[V:1] z8 | 
[V:2] d4c4- | 
[V:3] A8 | 
[V:4] F,8 | 
[V:1] z8 | 
[V:2] c4c4 | 
[V:3] G8 | 
[V:4] E,8 | 
[V:1] z4F4 | 
[V:2] d2f4ed | 
[V:3] F8 | 
[V:4] D,8 | 
[V:1] G4G2A2- | 
[V:2] e6c2- | 
[V:3] c8 | 
[V:4] C,8- | 
[V:1] A2GFE4 | 
[V:2] c2BAG4 | 
[V:3] c4c4- | 
[V:4] C,8- | 
[V:1] G4G2E2- | 
[V:2] z4g4 | 
[V:3] c4G4 | 
[V:4] C,8 | 
[V:1] E2DCC4 | 
[V:2] g2e4dc | 
[V:3] g4g2e2- | 
[V:4] C,8- | 
[V:1] z4E4- | 
[V:2] c4z4 | 
[V:3] e2dcc4 | 
[V:4] C,8- | 
[V:1] E4E4 | 
[V:2] c6G2 | 
[V:3] z4c4- | 
[V:4] C,8- | 
[V:1] E4E4 | 
[V:2] A2G2c4- | 
[V:3] c4G4 | 
[V:4] C,8- | 
[V:1] E6F2 | 
[V:2] c2d2e4 | 
[V:3] A2G2c4- | 
[V:4] C,8- | 
[V:1] G8- | 
[V:2] [M:2/1](3G4c6d2 | 
[V:3] c2d2e4 | 
[V:4] C,8 | 
[V:1] G8 | 
[V:2] (3e6f2g4 | 
[V:3] [M:3/1](3G4c6d2 | 
[V:4] C,8- | 
[V:1] [M:3/1](3:2:2G8E4 | 
[V:2] (3c4g6f2 | 
[V:3] (3e6f2g4 | 
[V:4] C,8- | 
[V:1] (3:2:4G6F2E2D2 | 
[V:2] (3:2:4e2d2e4c4 | 
[V:3] (3c4g6f2 | 
[V:4] C,8- | 
[V:1] (3C4c6_B2 | 
[V:2] (3z4g6f2 | 
[V:3] (3:2:4e2d2e6d2 | 
[V:4] C,8- | 
[V:1] (3:2:4A4G6F G | 
[V:2] (3:2:4e2d2e6d2 | 
[V:3] (3c2_B2c8 | 
[V:4] C,8- | 
[V:1] (3:2:6F6E FE2F E | 
[V:2] (3c2B2c8 | 
[V:3] (3:2:2A4G8 | 
[V:4] C,8 | 
[V:1] F8 |]  
[V:2] c8 |]  
[V:3] F8 |]  
[V:4] F,8 |]  



